<?xml version="1.0" encoding="UTF-8"?>
<map version="1.10" tiledversion="1.12.1" orientation="orthogonal" renderorder="right-down" width="67" height="67" tilewidth="16" tileheight="16" infinite="0" nextlayerid="5" nextobjectid="44">
 <tileset firstgid="1" name="spritefusion" tilewidth="16" tileheight="16" tilecount="152" columns="8">
  <image source="spritesheet.png" width="128" height="304"/>
 </tileset>
 <tileset firstgid="153" source="mainbuild.tsx"/>
 <tileset firstgid="2713" source="decoration.tsx"/>
 <layer id="1" name="Piso" width="67" height="67">
  <properties>
   <property name="collider" type="bool" value="false"/>
  </properties>
  <data encoding="csv">
0,0,0,0,0,0,0,0,0,0,0,0,0,0,0,0,0,0,0,0,0,0,0,0,0,0,0,0,0,0,0,0,0,0,0,0,0,0,0,0,0,0,0,0,0,0,0,0,0,0,0,0,0,0,0,0,0,0,0,0,0,0,0,0,0,0,0,
0,0,0,0,0,0,0,0,0,0,0,0,0,0,0,0,0,0,0,0,0,0,0,0,0,0,0,0,0,0,0,0,0,0,0,0,0,0,0,0,0,0,0,0,0,0,0,0,0,0,0,0,0,0,0,0,0,0,0,0,0,0,0,0,0,0,0,
0,0,1674,1674,1479,1546,1546,1546,1547,1547,1546,0,0,0,0,0,0,0,0,0,0,0,0,0,0,0,0,0,0,0,0,0,0,0,0,0,0,0,0,0,0,0,0,0,0,0,0,0,0,0,0,0,0,0,0,0,0,0,0,0,0,0,0,0,0,0,0,
0,0,1674,1674,1674,1671,1671,1479,1671,1674,1479,1546,1546,1546,1547,1547,1546,0,0,0,0,0,0,0,0,0,0,0,0,0,0,0,0,0,0,0,0,0,0,0,0,0,121,121,121,121,0,0,0,0,0,121,121,121,121,121,121,121,121,121,0,0,0,0,0,0,0,
0,0,1738,1738,1479,1479,1482,1479,1479,1674,1674,1671,1674,1479,1546,1546,1546,1547,1547,1546,0,0,0,0,0,0,1610614407,1610614282,3221227018,3221227019,0,0,0,0,0,0,0,0,0,0,0,0,0,121,121,121,0,0,0,0,0,121,121,121,121,121,121,121,121,121,0,0,0,0,0,0,0,
0,0,1482,1482,1546,1482,1674,1671,1671,1738,1479,1479,1674,1674,1671,1671,1479,1671,1479,1546,1546,1546,1547,1547,1546,1674,1610614410,1610614283,3221227143,3221227146,121,121,121,121,121,121,121,121,121,121,121,121,121,0,0,0,0,0,0,0,1680,1037,1037,1037,1037,1037,1037,1037,1037,1037,1294,0,0,0,0,0,0,
0,0,1674,1674,1671,1479,1674,1671,1671,1482,1546,1482,1738,1479,1479,1482,1479,1479,1479,1546,1671,1479,1671,1674,1479,1547,1546,1546,1547,1547,1546,121,121,1480,1674,1480,1674,1482,1482,1482,1482,1482,1482,1482,1482,1483,0,0,0,0,1678,1037,1037,1037,1037,1037,1037,1037,1037,1037,1294,0,0,0,0,0,0,
0,0,1674,1671,1479,1674,1671,1671,1671,1674,1671,1479,1482,1546,1482,1674,1671,1671,1671,1479,1546,1479,1479,1674,1674,1671,1671,1479,1671,1479,1546,121,121,1479,1671,1671,1671,1482,1483,1483,1674,1483,1482,1671,1482,1483,0,0,0,0,1742,1294,1037,1037,1037,1037,1037,1037,1037,1742,1294,0,0,0,0,0,0,
0,0,1482,1479,1479,1738,1674,1671,1479,1674,1671,1671,1674,1671,1479,1674,1671,1671,1671,1671,1546,1546,1546,1547,1547,1546,1546,1546,1547,1547,1546,121,121,1674,1479,1674,1671,1482,1483,1483,1483,1547,1483,1671,1671,1483,0,0,0,0,1294,1680,1681,1037,1037,1037,1037,1037,1681,1549,1294,0,0,0,0,0,0,
0,0,1674,1671,1671,1482,1546,1482,1674,1671,1671,1674,1479,1674,1479,1546,1546,1546,1547,1547,1546,1671,1479,1671,1479,1546,1671,1479,1671,1479,1546,121,121,1479,1671,1479,1482,1546,1547,1547,1671,1547,1483,1483,1671,1479,0,0,0,0,1680,1681,1549,1678,1294,1296,1360,1361,1361,1678,1294,0,0,0,0,0,0,
0,0,1674,1671,1671,1674,1671,1479,1674,1671,1671,1674,1674,1674,1674,1671,1671,1479,1671,1479,1546,1482,1479,1479,1479,1546,1482,1479,1479,1479,1546,121,121,1479,1479,1479,1482,1671,1482,1671,1480,1547,1671,1547,1671,1483,0,0,0,0,1680,1681,1296,1742,1680,1681,1297,1678,1360,1361,1294,0,0,0,0,0,0,
0,0,1674,1479,1546,1482,1546,1482,1674,1671,1671,1738,1479,1738,1479,1479,1482,1479,1479,1479,1546,1674,1671,1671,1671,1479,1674,1671,1671,1671,1479,121,121,1482,1482,1479,1482,1482,1546,1543,1544,1671,1546,1547,1482,1483,0,0,0,0,1294,1294,1678,1549,1489,1678,1360,1361,1296,1360,1361,0,0,0,0,0,0,
0,0,1674,1674,1671,1674,1671,1479,1674,1671,1671,1482,1546,1482,1546,1482,1674,1671,1671,1671,1479,1674,1671,1671,1671,1671,1674,1671,1671,1671,1671,121,121,1482,1674,1479,1546,1546,1546,1547,1547,1546,1546,1547,1482,1479,0,0,0,0,1294,1680,1360,1361,1360,1361,1680,1681,1485,1360,1361,0,0,0,0,0,0,
0,0,1738,1479,1479,1674,1479,1546,1546,1546,1547,1674,1671,1674,1671,1479,1674,1671,1671,1671,1671,1479,1482,1479,1479,1479,1546,1546,1546,121,121,121,121,1482,1674,1674,1671,1671,1479,1671,1479,1546,1547,1671,1483,1483,0,0,0,0,1360,1361,1681,1485,1360,1360,1361,1489,1485,1360,1361,0,0,0,0,0,0,
0,0,1482,1546,1482,1674,1674,1671,1671,1479,1671,1479,1546,1546,121,121,121,121,121,1482,1546,1482,1674,1671,1671,1671,1479,1479,1546,121,121,121,121,1671,1738,1479,1479,1482,1479,1479,1479,1546,1671,1671,1547,1547,0,0,0,0,1360,1361,1294,1680,1681,1360,1361,1360,1361,1742,1294,0,0,0,0,0,0,
0,0,1674,1671,1479,1738,1479,1479,1482,1479,1479,1479,1546,1479,121,121,121,121,121,1674,1671,1479,1674,1671,1671,1671,1671,1671,1479,1546,121,121,121,1736,1482,1546,1482,1674,1671,1671,1671,1479,1479,1479,1479,1671,0,0,0,0,1360,1361,1294,1489,1360,1361,1489,1360,1361,1489,1294,0,0,0,0,0,0,
0,0,0,121,121,1482,1546,1482,1674,1671,1671,1671,1479,1671,121,121,121,121,121,121,1674,1671,1479,1674,1671,1671,1671,1671,1671,1546,121,121,121,1675,1674,1671,1479,1674,1671,1671,1671,1671,1479,1479,1671,1671,0,0,0,0,0,0,1360,1361,1553,1489,1489,1360,1361,1489,1294,0,0,0,0,0,0,
0,0,1479,1546,1546,1674,1671,1479,1674,1671,1671,1671,1671,121,121,121,121,121,121,121,121,1674,1671,1479,1674,1671,1671,1671,1671,1546,121,121,121,1610614407,1610614282,1482,1675,1480,1482,1674,1479,1546,1546,1546,1547,1547,1546,0,0,0,0,0,0,121,1680,1360,1361,1360,1361,1680,1681,0,0,0,0,0,0,
0,0,1479,1546,1546,1674,1671,1479,1674,1671,1671,1671,1671,121,121,121,121,121,121,121,121,1674,1671,1479,1674,1671,1671,1671,1671,1479,121,121,121,1610614410,1610614283,1479,1546,1546,1674,1479,1546,1546,1546,1547,1547,1546,1546,0,0,0,0,0,0,121,1361,1681,1485,1360,1360,1361,1489,0,0,0,0,0,0,
0,0,1674,1671,1671,1479,1671,1479,1546,1671,1479,1546,121,121,121,121,121,121,121,121,1674,1479,1546,1546,1546,1547,1547,1546,1671,1671,121,121,121,1674,1674,1674,1671,1671,1674,1674,1671,1671,1479,1671,1479,1546,1546,0,1680,1360,1361,1360,1361,1680,1681,1294,1680,1680,1360,1361,1360,1361,1680,1681,0,0,0,
0,0,1479,1479,1482,1479,1479,1479,1546,1479,1479,1546,121,121,121,121,121,121,121,121,1674,1674,1671,1671,1479,1671,1479,1546,1671,1671,121,121,121,1738,1738,1479,1479,1482,1738,1479,1479,1482,1479,1479,1479,1546,1546,0,1361,1681,1485,1360,1360,1361,1489,1294,1489,1361,1681,1485,1360,1360,1361,1489,0,0,0,
0,0,1546,1482,1674,1671,1671,1671,1479,1671,1671,1479,1674,1674,1479,1546,1546,1546,1547,1547,1738,1479,1479,1482,1479,1479,1479,1546,1671,1671,121,121,121,1674,1479,1546,1546,1546,1547,1547,1546,1674,1671,1671,1671,1479,1479,0,1361,1294,1680,1681,1360,1361,1360,1361,1680,1681,1294,1680,1681,1360,1361,1360,0,0,0,
0,0,1546,1546,1546,1547,1547,1546,1671,1671,1671,1671,1674,1674,1674,1674,1479,1546,1546,1546,1482,1546,1482,1674,1479,1546,1546,1546,1547,1547,1546,121,121,1674,1674,1671,1671,1479,1671,1479,1546,1674,1671,1671,1671,1671,1671,1546,1361,1680,1360,1361,1360,1361,1680,1681,1361,1489,1361,1360,1361,1680,1681,1360,0,0,0,
0,0,1671,1671,1479,1671,1479,1546,1738,1738,1738,1738,1738,1674,1674,1674,1479,1546,1546,1546,1674,1671,1479,1674,1674,1671,1671,1479,1671,1479,1546,121,121,1738,1479,1479,1482,1479,1479,1479,1546,1671,1671,1671,1671,1479,1546,1546,121,1361,1681,1485,1360,1360,1361,1489,1361,1360,1485,1360,1360,1361,1489,1360,0,0,0,
0,0,1479,1482,1479,1479,1479,1546,1482,1482,1482,1482,1482,1738,1738,1674,1674,1671,1671,1479,1674,1479,1546,1738,1479,1479,1482,1479,1479,1479,1546,121,121,1482,1546,1482,1674,1671,1671,1671,1479,1671,1671,1671,1671,1671,1479,1546,1546,1361,1294,1680,1360,1361,1360,1361,1680,1681,1360,1361,1680,1681,1360,1489,0,0,0,
0,0,1482,1674,1671,1671,1671,1479,1674,1674,1674,1674,1674,1482,1482,1738,1479,1479,1482,1479,1674,1479,1546,1482,1546,1482,1674,1671,1671,1671,1479,1546,1546,1674,1671,1479,1674,1671,1671,1671,1671,1674,1671,1671,1671,1671,1671,1479,2147485319,1361,1294,1361,1681,1485,1360,1360,1361,1489,1360,1360,1361,1489,1360,0,0,0,0,
0,0,1479,1674,1671,1671,1671,1671,1674,1671,1479,1674,1671,1674,1674,1674,1674,1479,1546,1546,1546,1547,1547,1674,1671,1479,1674,1671,1671,1671,1671,1546,1546,1546,1546,1546,1546,1546,1546,1674,1671,1479,1674,1671,1671,1671,1671,1671,2147485322,2147485194,1360,1361,1680,1360,1361,1360,1361,1680,1681,1360,1361,1360,1360,0,0,0,0,
0,0,0,1674,1482,1674,1674,1671,1479,1674,1671,1671,1671,1671,121,1674,1674,1674,1479,1546,1546,1546,1547,1547,1738,1479,1479,1482,1479,1479,1479,1546,1546,1546,1546,1546,1546,1546,1546,1546,1674,1671,1479,1674,1671,1671,1671,1671,3758097930,3758098058,2147485137,1361,1361,1681,1485,1360,1360,1361,1489,1361,1489,1360,1489,0,0,0,0,
0,0,1674,1738,1674,1674,1671,1479,1674,1671,1671,1671,1671,121,121,1738,1674,1674,1479,1546,1546,1546,1547,1547,1482,1546,1482,1674,1671,1671,1671,1479,1479,1479,1479,1479,1479,1479,1546,1546,1546,1674,1671,1479,1674,1671,1671,1671,3758097863,3758097930,2147485137,2147485137,1361,1680,1360,1361,1360,1361,1680,1681,1489,1360,0,0,0,0,0,
0,0,1674,1482,1674,1671,1479,1674,1671,1671,1671,1671,1546,1546,1547,1482,1738,1674,1674,1671,1671,1479,1671,1479,1674,1674,1674,1479,1546,1546,1546,1547,1547,1546,1671,1671,1671,1671,1479,1479,1546,1674,1671,1479,1674,1671,1671,1671,1671,1479,2147485137,2147485137,1361,1361,1681,1485,1360,1360,1361,1489,1361,1489,0,0,0,0,0,
0,0,1738,1674,1671,1479,1674,1671,1671,1671,1671,1671,1671,1479,1671,1674,1482,1738,1479,1479,1482,1479,1479,1479,1674,1674,1674,1674,1671,1671,1479,1671,1479,1546,1671,1671,1671,1671,1671,1671,1479,1674,1671,1479,1674,1671,1671,1671,1546,1546,3758097930,1680,1360,1361,1360,1361,1680,1681,1361,1360,121,121,0,1360,2147485137,0,0,
0,0,1482,1674,1671,1479,1674,1671,1671,1671,1671,1479,1482,1479,1479,1479,1674,1482,1546,1482,1674,1671,1671,1671,1738,1738,1738,1479,1479,1674,1674,1479,1546,1546,1546,1547,1547,1546,1671,1671,1671,1674,1671,1479,1674,1671,1671,1671,1546,1546,3758097863,1361,1681,1485,1360,1360,1361,1489,1489,1360,121,121,1361,1681,1489,0,0,
0,0,1674,1674,1671,1479,1674,1671,1671,1671,1671,1482,1674,1671,1671,1671,1479,1674,1671,1479,1674,1671,1671,1671,1482,1482,1482,1546,1482,1674,1674,1674,1671,1671,1479,1671,1479,1546,1671,1671,1671,1674,1671,1479,1674,1671,1671,1671,1479,2684356039,2684356106,1361,1294,1680,1681,1360,1361,1680,1360,1361,1360,1361,1680,1681,2147485137,0,0,
0,0,1674,1671,1479,1674,1671,1671,1671,1671,1671,1479,1674,1671,1671,1671,1671,1479,1482,1546,1482,1674,1671,1671,1674,1674,1674,1671,1479,1738,1738,1479,1479,1482,1479,1479,1479,1546,1674,1671,1671,1674,1671,1479,1674,1671,1671,1671,1671,2684356106,2684356234,1361,2684355921,2684355921,2684355921,2684356240,1361,1361,1681,1485,1360,1360,1361,1489,1681,0,0,
0,0,1674,1671,1479,1674,1671,1671,1671,1671,1671,1479,1674,1671,1671,1671,1671,1671,1674,1671,1479,1674,1671,1674,1479,1546,1546,1546,1547,1482,1482,1546,1482,1674,1671,1671,1671,1479,1546,1671,1671,1674,1671,1479,1674,1546,1671,1671,1671,2684356039,2684355921,2684355920,2684355854,2684355854,2684356241,2684355920,1485,1361,1294,1680,1681,1360,1361,1360,1489,1489,0,
0,0,1674,1671,1479,1674,1671,1671,1671,1671,1674,1671,1479,1674,1671,1671,1671,1671,1674,1671,1479,1674,1671,1674,1674,1479,1546,1546,1546,1674,1674,1671,1479,1674,1671,1671,1671,1671,1546,1479,1482,1479,1479,1479,1546,1546,1674,1546,1671,2684356039,2684355921,2684355921,2684356049,2684356240,2684356045,2684355921,1680,1361,1294,1489,1360,1361,1489,1360,1489,1681,0,
0,0,0,121,121,121,121,121,121,121,121,121,1674,1674,1671,1671,1479,1671,1479,1546,1546,1546,121,1738,1674,1674,1671,1671,1479,1671,1479,1738,1479,1479,1482,1479,1479,1479,1546,1482,1674,1671,1671,1671,1546,1479,1546,1671,1674,2147485137,2684356113,2684356113,2684355920,2684356241,2684355920,3221226961,3221226833,3221226832,3221227025,2684355921,1553,1489,1489,1360,1489,1489,0,
0,0,0,121,121,121,121,121,121,121,121,121,1738,1479,1479,1482,1479,1479,1479,1546,1546,1546,1546,1482,1738,1479,1479,1482,1479,1479,1479,1482,1546,1482,1674,1671,1671,1671,1479,1479,1674,1671,1671,1671,1479,1546,1546,1674,1546,2147485137,2684355920,2684356049,2684355921,2684355920,2684355920,3221226832,3221226961,3221226961,3221227025,3221226833,3221226832,1360,1361,1489,2147485137,1489,0,
0,0,0,121,121,121,121,121,121,121,121,121,1482,1546,1482,1674,1671,1671,1671,1479,1479,1546,1546,1674,1482,1546,1674,1479,1546,1546,1546,1547,1547,1546,1546,1671,1671,1671,1671,1479,1674,1671,1671,1671,1671,1546,1479,1546,1546,2147485137,2684355921,2684356049,2684356049,2684355921,2684355921,3221226832,3221226961,1610614417,1610614225,1610614096,1610614096,1610614096,1610614225,1489,1489,1489,0,
0,0,1686,1491,3221226775,3221226836,3221226836,3221226772,3221226771,3221226836,3221226963,3221226963,1674,1671,1479,1674,1671,1671,1671,1671,1671,1479,1546,1546,1674,1671,1674,1674,1671,1671,1479,1671,1479,1546,1546,1546,1546,1671,1671,1674,1671,1671,1671,1671,1546,1546,1546,1546,1479,1546,2684356049,2684355920,2684355920,2684355920,2684356049,3221226832,3221226833,1610614416,1610614097,1610614097,1610614225,1610614225,1610614097,1489,0,0,0,
0,0,1686,1303,3221226836,3221226774,3221226774,3221226967,3221226775,3221227158,3221227158,3221227158,3221226836,3221226835,3221227156,1671,1479,1674,1671,1671,1671,1671,1479,1479,1479,1479,1738,1479,1479,1482,1479,1479,1479,1546,1546,1546,1546,1546,1547,1547,1546,1671,1671,1546,1546,1546,1546,1546,1546,1546,2684355921,2684355921,2684355921,2684356240,1360,1361,1680,1681,1610614096,1610614096,1610614097,1610614225,1610614096,1489,0,0,0,
0,0,1303,1495,3221226774,3221226774,3221227158,3221227158,3221226967,3221226967,3221226775,3221226967,3221226772,3221226771,3221227156,1671,1610614407,1610614282,2147485319,2147485322,1671,1671,1671,1671,1671,1671,1482,1546,1482,1674,1671,1671,1671,1479,1479,1546,1546,1479,1671,1479,1546,1671,0,0,1546,1546,1546,1546,1546,2684355920,2684355854,2684355854,2684356241,2684355920,1360,1360,1361,1489,1610614417,1610614225,1610614096,1610614096,1610614096,1610614225,0,0,0,
0,0,1686,1686,3221227220,3221227027,3221227158,3221227156,3221226775,3221226775,3221227158,3221227156,3221227158,3221226967,3221226774,3221227156,1610614410,1610614283,2147485194,3758097930,3758098055,1073743371,1073743370,121,121,1482,1674,1671,1479,1674,1671,1671,1671,1671,1671,1479,1479,1479,1479,1479,1546,0,0,0,0,0,0,1546,1546,2684355921,2684356049,2684356240,2684356045,3221226961,3221226833,3221226832,3221227025,3221226832,1610614416,1610614097,1610614097,1610614225,1610614225,1610614097,0,0,0,
0,0,1491,1364,1366,1299,1302,3221227027,3221227156,3221226963,3221227158,3221227158,3221227158,3221226963,3221226963,3221227156,3221227156,3221227156,3221227156,3758097931,3758098058,1073743498,1073743495,121,121,1674,1671,1674,1671,1479,1674,1671,1671,1671,1671,1671,1671,1671,1671,1671,1479,0,0,0,0,0,0,0,2684356113,2684356113,2684355920,2684356241,2684355920,3221226832,3221226961,3221226961,3221227025,3221226833,1610614097,1610614096,1610614096,1610614097,1610614225,1610614096,0,0,0,
0,0,3221226771,3221227158,3221226771,3221226771,3221227156,3221227156,3221227220,3221226967,3221226771,3221226771,3221227220,3221226771,3221226771,3221226836,3221226772,3221226771,3221226836,3221226963,3221226963,3221226963,3221227220,1686,1491,3221226775,3221226836,3221226836,3221226772,1674,1671,1479,1674,1671,1671,1671,1671,1671,1671,1671,1671,0,0,0,0,0,0,0,2684355920,2684356049,1680,1680,2684355920,1680,3221226961,3221226833,3221226832,3221226961,1680,1360,1361,1360,1361,1680,1681,0,0,
0,0,3221226771,3221226774,3221226838,3221227158,3221227158,3221227027,3221226967,3221226963,3221226963,3221226836,3221226835,3221226774,3221226771,3221226774,3221226967,3221226775,3221227158,3221227158,3221227158,3221226836,3221226835,1686,1303,3221226836,3221226774,3221226774,3221226967,3221226775,3221227158,3221227158,1674,1671,1479,1674,1671,1671,1671,1671,0,0,0,0,0,0,0,0,1610614417,1610614417,1610614225,1610614096,1680,1680,1610614225,3221226832,3221227153,3221227152,1680,1360,1361,1360,1361,1680,1681,0,0,
0,0,1686,1686,3221227220,3221227027,3221227158,3221227156,3221226775,3221226775,3221227158,1303,1495,3221226774,3221226774,3221227158,3221227158,3221226967,3221226967,3221226775,3221226967,3221226772,3221226771,1303,1495,3221226774,3221226774,3221227158,3221227158,3221226967,3221226967,3221226775,3221226967,3221226772,3221226771,3221227158,0,0,0,0,0,0,0,0,0,0,0,0,1610614416,1610614416,1610614097,1610614097,1610614225,1610614225,1610614097,3221226832,3221226832,3221226957,1361,1681,1485,1360,1360,1361,1489,0,0,
0,0,1491,1364,1366,1299,1302,3221227027,3221227156,3221226963,3221227158,1686,1686,3221227220,3221227027,3221227158,3221227156,3221226775,3221226775,3221227158,3221227156,3221227158,3221226967,1686,1686,3221227220,3221227027,3221227158,3221227156,3221226775,3221226775,3221227158,3221227156,3221227158,3221226967,3221226774,0,0,0,0,0,0,0,0,0,0,0,0,1610614097,1610614097,1610614096,1610614096,1680,1360,1361,1360,1680,1680,1681,1361,1680,1681,1360,1361,1360,0,0,
0,0,3221226771,3221227158,3221226771,3221226771,3221227156,3221227156,3221227220,3221226967,3221226771,1491,1364,1366,1299,1302,3221227027,3221227156,3221226963,3221227158,3221227158,3221227158,3221226963,1491,1364,1366,1299,1302,3221227027,3221227156,3221226963,3221227158,3221227158,3221227158,3221226963,3221226963,0,0,0,0,0,0,0,0,0,0,0,0,1610614096,1610614096,1610614096,1610614417,1361,1681,1485,1360,1680,1361,1489,1360,1361,1489,1361,1489,1360,0,0,
0,0,3221226771,3221226774,3221226838,3221227158,3221227158,3221227027,3221226967,1043,1043,1044,3221227158,3221226771,3221226771,3221227156,3221227156,3221227220,3221226967,3221226771,3221226771,3221227220,3221226771,3221226771,3221227158,3221226771,3221226771,3221227156,3221227156,3221227220,3221226967,3221226771,3221226771,3221227220,3221226771,3221226771,0,0,0,0,0,0,0,0,0,0,0,3221226961,1610614097,1610614097,1610614221,1610614416,1361,1294,1680,1681,1360,1680,1360,1360,1361,1360,1489,1489,1360,0,0,
0,0,0,1073743508,1073743379,1073743510,1073743510,1073743190,1043,1107,1107,1108,1043,1044,1044,1043,1044,1044,3221226963,3221226963,3221226836,3221226835,3221226774,3221226771,3221226774,3221226838,3221227158,1686,1491,3221226775,3221226836,3221226836,3221226772,3221226771,3221226836,1299,1302,1363,1364,1491,1491,1495,1555,1686,1686,1366,1302,3221226832,1610614096,1610614096,1610614417,1610614030,1361,1294,1489,1360,1361,1489,1360,1680,1489,1360,1360,1361,1489,0,0,
0,0,0,1073743508,1073743508,1073743315,1043,1043,1107,1171,1171,1172,1044,1044,1108,1044,1044,1108,1044,1044,1044,1044,1044,3221226836,3221226774,3221226774,3221226967,1686,1491,3221226775,3221226836,3221226836,3221226772,3221226771,3221226836,1299,1299,1748,1299,1299,1495,1748,1684,1684,1299,1299,1686,3221226832,1610614416,1610614416,1610614097,1610614097,1610614097,1360,1361,1553,1489,1489,1360,1489,1489,1360,3221226833,0,0,0,0,
0,0,0,1043,1043,1043,1107,1107,1171,1171,1172,1044,1108,1108,1172,1108,1108,1172,1108,1108,1108,1108,1108,3221226774,3221226774,3221227158,3221227158,1686,1303,3221226836,3221226774,3221226774,3221226967,3221226775,3221227158,1491,1491,1686,1686,1686,1491,1684,1555,3221226774,3221226771,3221226838,3221226836,1555,3221226833,3221226832,3221227153,3221227152,3221226961,3221226833,3221226832,3221227025,1680,1361,1489,1360,1361,1489,2684356240,0,0,0,0,
0,0,121,1107,1107,1107,1171,1171,1171,1172,1044,1108,1172,1044,1172,1172,1172,1172,1172,1172,1172,1172,1172,3221227220,3221227027,3221227158,3221227156,1303,1495,3221226774,3221226774,3221227158,3221227158,3221226967,3221226967,1302,1495,1686,1684,1686,1303,1303,1684,1686,1555,1748,3221227158,1748,1610614225,1610614096,1610614096,1610614096,1610614225,3221226961,3221226961,3221227025,3221226833,3221226832,2684355920,2684355921,2684355921,2684355921,2684356240,0,0,0,0,
0,0,1043,1171,1171,1171,1171,1172,1108,1172,1108,1172,1043,1043,1043,1043,1043,1043,1043,1044,1044,1171,1172,1366,1299,1302,3221227027,1686,1686,3221227220,3221227027,3221227158,3221227156,3221226775,3221226775,1686,1299,1300,1495,1303,1495,1495,1686,1686,1302,1302,3221226967,3221226967,1610614097,1610614097,1610614225,1610614225,1610614097,3221226961,3221226833,3221226832,3221226961,3221226766,3221226833,3221226961,3221226833,3221226832,3221227025,3221225593,0,0,0,
0,0,1107,1171,1172,1044,1108,1108,1172,1172,1172,1172,1044,1044,1044,1044,1044,1044,1044,1044,1044,1044,1044,1044,1044,3221227156,3221227156,1491,1364,1366,1299,1302,3221227027,3221227156,3221226963,1686,1363,1364,1686,1686,1686,1303,1495,1302,1302,1364,3221226775,3221226963,1610614096,1610614096,1610614097,1610614225,1610614096,3221226833,3221226832,3221227153,3221227152,3221226766,3221226833,3221226832,3221226961,3221226961,3221227025,3221226833,3221226832,0,0,
0,0,1171,1171,1172,1108,1172,1172,1172,1171,1171,1172,1044,1108,1108,1108,1108,1108,1108,1108,1108,1108,1108,1108,1108,3221227158,1303,1495,3221226774,3221226774,3221227158,3221227158,3221226967,3221226967,1302,1491,1748,1491,1491,1491,1364,1299,1300,1364,1364,1303,3221226963,1302,1610614096,1610614417,1610614096,1610614289,1610614289,3221226833,3221226832,3221226832,3221226957,3221227153,3221226833,3221226832,3221226961,3221226833,3221226832,3221226961,3221226766,3221226833,0,
0,0,3221226775,1171,1172,1172,1171,1172,1171,1172,1172,1108,1108,1172,1172,1172,1172,1172,1172,1172,1172,1044,1044,1172,1172,3221226963,1303,1495,3221226774,3221226774,3221227158,3221227158,3221226967,3221226967,1302,1302,1495,1686,1684,1686,1303,1303,1684,1686,1555,1748,3221227158,1302,1610614221,1610614416,1610614225,1610614097,1680,3221227152,3221226833,3221226832,3221226833,3221226832,3221227152,1610614096,1610614096,1610614225,3221227153,3221227152,3221226766,3221226833,0,
0,0,3221226836,1044,1044,1044,1044,1044,1044,1171,1044,1044,1044,1044,1044,1044,1044,1044,1044,1044,1044,1044,1044,3221226836,3221226835,3221227158,1303,1495,3221226774,3221226774,3221227158,3221227158,3221226967,3221226967,1302,1686,1299,1300,1495,1303,1495,1495,1686,1686,1302,1302,3221226967,3221226967,3221226961,3221226833,3221226832,3221227025,2684355921,1360,1361,1489,1610614416,1610614097,2684355921,2684355921,2684355921,2684356240,3221226832,3221226957,3221227153,3221226833,0,
0,0,3221226774,1044,1044,1044,1044,1044,1044,1044,1044,1044,1044,1044,1044,1044,1044,1044,1044,1044,1044,1044,1044,3221226772,3221226771,3221227158,1686,1686,3221227220,3221227027,3221227158,3221227156,3221226775,3221226775,1686,1686,1363,1364,1686,1686,1686,1303,1495,1302,1302,1364,3221226775,1364,3221226961,3221226833,3221226832,3221227025,3221226832,3221226961,3221226833,3221226832,3221227025,1680,3221226961,3221226833,3221226832,3221227025,3221227025,3221226833,3221226832,3221227152,0,
0,0,3221227220,1044,1044,1044,1044,1044,1044,1044,1044,1044,1044,1044,1044,1044,1044,1044,1044,1044,3221227158,3221226967,3221226967,1302,1302,1302,1302,1302,1302,1302,1303,1495,3221226774,3221226774,3221227158,1303,1495,3221226774,3221226774,1303,1495,3221226774,3221226774,3221227158,3221227158,3221226967,3221226967,1302,3221226832,3221226961,3221226961,3221227025,3221226833,3221226832,3221226961,3221226961,3221227025,3221226961,3221226832,3221226961,3221226961,3221227025,3221226832,3221226832,0,0,0,
0,0,3221225593,1044,1044,1044,1044,1044,1044,1044,1044,1044,1044,1044,1044,1044,1044,1044,1044,3221227158,3221227156,3221226775,3221226775,1686,1686,1686,1686,1686,1686,1686,1686,1686,3221227220,3221227027,3221227158,1686,1686,3221227220,3221227027,1686,1686,3221227220,3221227027,3221227158,3221227156,3221226775,3221226775,1686,3221226832,3221226961,3221226833,3221226832,3221226961,3221226832,3221226961,3221226833,3221226832,3221226832,3221226832,3221226961,3221226833,3221226832,3221226961,3221226766,3221226833,0,0,
0,0,0,1044,1044,1044,1044,1044,1044,1044,1044,1044,1044,1044,1044,1044,1044,1044,1044,1302,3221227027,3221227156,3221226963,1686,1686,1686,1686,1686,1686,1686,1491,1364,1366,1299,1302,1491,1364,1366,1299,1491,1364,1366,1299,1302,3221227027,3221227156,3221226963,1686,3221226832,3221226833,3221226832,3221227153,3221227152,3221226832,3221226833,3221226832,3221227153,3221226832,3221226832,3221226833,3221226832,3221227153,3221227152,3221226766,3221226833,0,0,
0,0,0,3221226771,3221227158,3221226771,3221226771,3221227156,3221227156,3221227220,3221226967,1491,1299,1302,3221226771,3221226771,3221227158,3221226771,3221226771,3221227156,3221227156,3221227220,3221226967,1491,1491,1491,1491,1491,1491,1491,3221226771,3221227158,3221226771,3221226771,3221227156,3221226771,3221227158,3221226771,3221226771,3221226771,3221227158,3221226771,3221226771,3221227156,3221227156,3221227220,3221226967,1491,3221226961,3221226833,3221226832,3221226832,3221226957,3221226961,3221226833,3221226832,3221226832,3221226832,3221226961,3221226833,3221226832,3221226832,3221226957,3221227153,3221226833,0,0,
0,0,0,3221226771,3221226774,3221226838,3221227158,3221227158,3221227027,3221226967,3221226963,1302,3221226771,3221227156,3221226771,3221226771,3221226774,3221226838,3221227158,3221227158,3221227027,3221226967,3221226963,1302,1302,1302,1302,1302,1302,1302,3221226771,3221226774,3221226838,3221227158,3221227158,3221226771,3221226774,3221226838,3221227158,3221226771,3221226774,3221226838,3221227158,3221227158,3221227027,3221226967,3221226963,1302,3221227153,3221227152,3221226833,3221226832,3221226833,3221227153,3221227152,3221226833,3221226832,3221226961,3221227153,3221227152,3221226833,3221226832,3221226833,3221226832,3221227152,0,0,
0,0,0,0,0,0,0,0,0,0,0,0,0,0,0,0,0,0,0,0,0,0,0,0,0,0,0,0,0,0,0,0,0,0,0,0,0,0,0,0,0,0,0,0,0,0,0,0,0,0,0,0,0,0,0,0,0,0,0,0,0,0,0,0,0,0,0,
0,0,0,0,0,0,0,0,0,0,0,0,0,0,0,0,0,0,0,0,0,0,0,0,0,0,0,0,0,0,0,0,0,0,0,0,0,0,0,0,0,0,0,0,0,0,0,0,0,0,0,0,0,0,0,0,0,0,0,0,0,0,0,0,0,0,0
</data>
 </layer>
 <layer id="2" name="Parede" width="67" height="67">
  <properties>
   <property name="collider" type="bool" value="false"/>
  </properties>
  <data encoding="csv">
416,416,416,416,416,416,416,416,416,416,416,416,416,416,416,416,416,416,416,416,416,416,416,416,416,416,416,416,416,416,416,416,416,416,416,416,416,416,416,416,416,416,416,416,416,416,416,416,416,416,416,416,416,416,416,416,416,416,416,416,416,416,416,416,416,416,416,
416,416,416,416,416,416,416,416,416,416,416,416,416,416,416,416,416,416,416,416,416,416,416,416,416,416,416,416,416,416,416,416,416,416,416,416,416,416,416,416,416,416,416,416,416,416,416,416,416,416,416,416,416,416,416,416,416,416,416,416,416,416,416,416,416,416,416,
416,416,114,27,49,25,26,27,93,95,49,25,26,27,146,420,2147483794,26,26,26,26,26,26,610,611,26,26,26,26,49,146,536871330,2147483794,26,26,26,26,49,930,931,26,26,26,26,26,26,146,536871330,536871330,536871330,2147483794,27,49,49,49,49,49,49,49,49,2147483762,3221225619,3221225619,3221225619,3221225619,3221225619,416,
416,416,53,32,30,31,32,31,92,96,97,98,99,100,63,420,3221225535,673,673,673,1265,1266,1267,674,675,1328,1009,1009,1010,1011,3221225526,536871330,488,989,1003,1004,1005,673,994,995,1002,1003,1004,1005,1006,1000,3221225526,536871330,536871330,536871330,53,736,674,675,736,736,736,674,675,736,3221225526,3221225619,3221225619,3221225619,3221225619,3221225619,416,
416,416,54,35,110,111,112,113,122,38,102,103,104,105,72,612,2147483720,1390,1391,736,736,736,736,802,803,1392,1393,1393,1394,1395,3221225526,536871330,488,1053,1067,1068,1069,1070,1058,1059,1066,1067,1068,1069,1070,1064,3221225525,536871330,536871330,536871330,54,736,802,803,736,736,736,802,803,736,3221225526,3221225619,3221225619,3221225619,3221225619,3221225619,416,
416,416,55,864,864,864,864,864,866,867,864,864,864,864,145,736,680,870,870,870,870,870,870,866,867,870,870,870,870,870,3221225525,536871330,488,1117,1131,1132,1133,1134,1122,1123,1130,1131,1132,1133,1134,1128,3221225525,536871330,536871330,536871330,55,44,866,867,44,44,44,866,867,2147483699,2147483703,3221225619,3221225619,3221225619,3221225619,3221225619,416,
416,416,53,0,0,0,0,0,0,0,0,0,0,0,142,736,680,0,0,0,0,0,0,0,0,0,0,0,0,0,3221225525,536871330,488,1181,1184,1184,1184,1184,1186,1187,1184,1184,1184,1184,1184,1192,3221225525,536871330,536871330,536871330,53,0,0,0,0,0,0,0,0,2147483763,2147483701,3221225619,3221225619,3221225619,3221225619,3221225619,416,
416,416,54,0,0,0,0,0,0,0,0,0,0,0,140,44,872,0,0,0,0,0,0,0,0,0,0,0,0,0,3221225525,536871330,488,0,0,0,0,0,0,0,0,0,0,0,0,0,3221225525,536871330,536871330,536871330,53,0,0,0,0,0,0,0,0,2147483755,2147483702,3221225619,3221225619,3221225619,3221225619,3221225619,416,
416,416,55,0,0,0,0,0,0,0,0,0,0,0,0,0,0,0,0,0,0,0,0,0,0,0,0,0,0,0,3221225525,536871330,488,0,0,0,0,0,0,0,0,0,0,0,0,0,3221225525,536871330,536871330,536871330,53,0,0,0,0,0,0,0,0,2147483756,2147483703,3221225619,3221225619,3221225619,3221225619,3221225619,416,
416,416,53,0,0,0,0,0,0,0,0,0,0,0,0,0,0,0,0,0,0,0,0,0,0,0,0,0,0,0,3221225525,536871330,488,0,0,0,0,0,0,0,0,0,0,0,0,0,3221225525,536871330,536871330,536871330,53,0,0,0,0,0,0,0,0,2147483757,2147483701,3221225619,3221225619,3221225619,3221225619,3221225619,416,
416,416,54,0,0,0,0,0,0,0,0,0,0,0,0,0,0,0,0,0,0,0,0,0,0,0,0,0,0,0,3221225525,536871330,488,0,0,0,0,0,0,0,0,0,0,0,0,0,3221225525,536871330,536871330,536871330,53,0,0,0,0,0,0,0,0,2147483763,2147483702,3221225619,3221225619,3221225619,3221225619,3221225619,416,
416,416,55,0,0,0,0,0,0,0,0,0,0,0,135,418,488,0,0,0,0,0,0,0,0,0,0,0,0,0,3221225525,536871330,488,0,0,0,0,0,0,0,0,0,0,0,0,0,3221225525,536871330,536871330,536871330,53,0,0,0,0,0,0,0,0,3221225587,2147483703,3221225619,3221225619,3221225619,3221225619,3221225619,416,
416,416,225,0,0,0,0,0,0,0,0,0,0,0,133,418,2147483781,0,0,0,0,0,0,0,0,0,0,0,0,0,133,536871330,488,0,0,0,0,0,0,0,0,0,0,0,0,0,3221225525,536871330,536871330,536871330,3221225694,0,0,0,0,0,0,0,0,0,1073742046,3221225619,3221225619,3221225619,3221225619,3221225619,416,
416,416,147,147,147,147,53,0,0,0,0,63,418,418,418,418,418,418,418,418,418,418,418,418,488,0,0,0,0,3221225526,536871330,536871330,488,0,0,0,0,0,0,0,0,0,0,0,0,0,3221225525,536871330,536871330,536871330,536871330,536871330,536871330,54,0,0,0,3221225526,3221225619,3221225619,3221225619,3221225619,3221225619,3221225619,3221225619,3221225619,416,
416,416,147,147,147,147,54,0,0,0,0,65,418,418,418,418,418,418,418,418,418,418,418,418,488,0,0,0,0,3221225526,536871330,536871330,488,0,0,0,0,0,0,0,0,0,0,0,0,0,3221225525,536871330,536871330,536871330,536871330,536871330,536871330,54,0,0,0,3221225525,3221225619,3221225619,3221225619,3221225619,3221225619,3221225619,3221225619,3221225619,416,
416,416,2147483870,1502,1502,1502,618,0,0,0,0,65,418,418,418,418,418,418,418,418,418,418,418,418,488,0,0,0,0,3221225526,536871330,536871330,488,0,0,0,0,0,0,0,0,0,0,0,0,0,3221225525,536871330,536871330,536871330,536871330,536871330,536871330,54,0,0,0,496,3221225619,3221225619,3221225619,3221225619,3221225619,3221225619,3221225619,3221225619,416,
416,416,54,1260,1260,1260,1073742572,0,0,0,0,65,418,418,418,418,418,418,418,418,418,418,418,418,488,0,0,0,0,3221225526,536871330,536871330,488,0,0,0,0,0,0,0,0,0,0,0,0,0,3221225525,418,2147483870,1502,1502,1502,1502,618,0,0,0,603,610,611,26,26,26,222,3221225619,3221225619,416,
416,416,55,1322,1323,737,1073742572,0,0,0,0,63,418,418,418,418,418,418,418,418,418,418,418,418,488,0,0,0,0,3221225526,536871330,536871330,488,0,0,0,0,0,0,0,0,0,0,0,0,0,3221225525,418,54,746,736,674,675,748,0,0,0,752,674,675,734,2147484394,734,3221225526,3221225619,3221225619,416,
416,416,53,1386,1387,737,2147484464,0,0,0,0,65,418,418,418,418,418,418,418,418,418,418,418,418,488,0,0,0,0,3221225526,536871330,536871330,225,0,0,0,0,0,0,0,0,0,0,0,0,0,228,418,55,746,736,802,803,812,0,0,0,816,802,803,734,2147484394,734,3221225526,3221225619,3221225619,416,
416,416,54,864,864,864,876,0,0,0,0,65,418,418,418,418,418,418,418,418,418,418,418,418,488,0,0,0,0,3221225526,536871330,536871330,536871330,536871330,488,0,0,0,0,0,3221225526,418,418,418,418,418,418,418,488,865,865,866,867,876,0,0,0,880,866,867,865,865,865,3221225526,3221225619,3221225619,416,
416,416,55,0,0,0,0,0,0,0,0,65,2147483795,2147483795,418,418,418,418,418,418,418,418,418,418,488,0,0,0,0,3221225526,536871330,536871330,536871330,536871330,488,0,0,0,0,0,3221225526,418,418,418,418,418,418,418,488,0,0,0,0,0,0,0,0,0,0,0,0,0,0,3221225526,3221225619,3221225619,416,
416,416,53,0,0,0,0,0,0,0,0,65,2147483795,2147483795,418,114,26,26,610,611,26,26,26,26,618,0,0,0,0,603,26,610,611,26,618,0,0,0,0,0,603,26,1502,1502,49,146,418,418,488,0,0,0,0,0,0,0,0,0,0,0,0,0,0,3221225526,3221225619,3221225619,416,
416,416,54,0,0,0,0,0,0,0,0,2147483701,2147483795,2147483795,418,2147483713,673,673,674,675,97,98,99,100,1073742572,0,0,0,0,752,673,674,675,673,1073742572,0,0,0,0,0,752,670,674,675,1331,3221225526,418,418,488,0,0,0,0,0,0,0,0,0,0,0,0,0,0,3221225526,3221225619,3221225619,416,
416,416,55,0,0,0,0,0,0,0,0,133,2147483795,2147483795,418,2147483713,1322,1323,674,675,102,103,104,105,1073742572,0,0,0,0,752,734,674,675,736,1073742572,0,0,0,0,0,752,1330,674,675,736,3221225526,418,418,225,0,0,0,0,0,0,0,0,0,0,0,0,0,0,133,3221225619,3221225619,416,
416,416,53,0,0,0,0,63,147,147,147,2147483795,2147483795,2147483795,418,2147483713,1386,1387,802,803,1380,1381,1382,1383,2147484464,0,0,0,0,816,736,802,803,736,2147484464,0,0,0,0,0,816,736,802,803,736,3221225525,418,418,418,488,0,0,0,0,0,0,0,0,0,0,0,0,3221225526,3221225619,3221225619,3221225619,416,
416,416,54,0,0,0,0,603,1502,1502,1502,1502,1502,1502,1502,2147484251,870,865,866,867,865,865,865,865,876,0,0,0,0,880,870,866,867,1190,876,0,0,0,0,0,880,865,866,867,880,3221225525,418,418,418,488,0,0,0,0,0,0,0,0,0,0,0,0,3221225526,3221225619,3221225619,3221225619,416,
416,416,55,0,0,0,0,752,1004,1004,1004,1004,1004,1004,1004,1073742572,0,0,0,0,0,0,0,0,0,0,0,0,0,0,0,0,0,0,0,0,0,0,0,0,0,0,0,0,0,603,1502,628,1502,618,0,0,0,0,0,0,0,0,0,0,0,0,603,1502,628,222,416,
416,416,53,0,0,0,0,752,736,1068,736,2147484384,1069,1070,736,1073742572,0,0,0,0,0,0,0,0,0,0,0,0,0,0,0,0,0,0,0,0,0,0,0,0,0,0,0,0,0,733,670,692,670,2147484029,0,0,0,0,0,0,0,0,0,0,0,0,2147484029,734,692,3221225526,416,
416,416,54,0,0,0,0,816,736,736,736,2147484384,1133,1134,736,2147484464,0,0,0,0,0,0,0,0,0,0,0,0,0,0,0,0,0,0,0,0,0,0,0,0,0,0,0,0,0,733,734,756,734,2147484093,0,0,0,0,0,0,0,0,0,0,0,0,2147484093,734,756,3221225526,416,
416,416,55,0,0,0,0,880,864,864,864,864,864,864,864,876,0,0,0,0,0,0,0,0,0,0,954,954,953,954,953,954,954,2147484602,954,954,954,954,0,0,0,0,0,0,0,797,734,820,734,2147484157,0,0,0,0,0,0,0,0,0,0,0,0,2147484157,734,820,3221225526,416,
416,416,53,0,0,0,0,0,0,0,0,0,0,0,0,0,0,0,0,0,0,0,0,0,0,1079,1016,1017,1017,1017,1018,1018,1018,1018,1018,1018,1018,1019,1020,0,0,0,0,0,0,861,865,884,865,573,1280,1281,1282,1283,1348,0,0,1343,1280,1281,1282,1283,573,865,884,3221225526,416,
416,416,54,4702,4703,0,0,0,0,0,0,0,0,0,0,0,0,0,0,0,0,0,0,0,0,1143,1144,1145,1146,1146,1146,1146,1146,1146,1146,1146,1146,1147,1084,0,0,0,0,0,0,0,0,0,0,1407,1344,1345,1346,1347,1348,0,0,1343,1344,1345,1346,1347,1284,0,0,3221225526,416,
416,416,55,0,0,4768,0,0,0,0,0,0,0,0,0,0,0,0,0,0,0,0,0,0,0,1207,1208,1209,1209,1210,1209,1210,1209,1210,1210,1209,1210,1211,1212,0,0,0,0,0,0,0,0,0,0,1471,1472,1473,1474,1475,1476,0,0,1343,1473,1473,1473,1473,1348,0,0,3221225526,416,
416,416,225,0,0,4832,0,0,0,0,0,0,0,0,0,0,0,0,0,0,0,0,0,0,0,1271,1273,1274,1273,1273,1273,1273,1274,2147484922,1273,1273,1273,1274,1276,0,0,0,0,0,0,0,0,0,0,1535,1536,1537,1538,1539,1540,0,0,1535,1539,1539,1539,1539,1540,0,0,3221225526,416,
416,416,147,147,147,147,147,147,147,147,147,147,147,147,147,53,0,0,0,0,0,0,0,0,0,0,0,0,0,0,0,0,0,0,0,0,0,0,0,0,0,0,0,0,0,0,0,0,0,0,0,0,0,0,0,0,0,0,0,0,0,0,0,0,0,3221225526,416,
416,416,147,147,147,147,147,147,147,147,147,147,147,147,147,53,0,0,0,0,0,0,0,0,0,0,0,0,0,0,0,0,0,0,0,0,0,0,0,0,0,0,0,0,0,0,0,0,0,0,0,0,0,0,0,0,0,0,0,0,0,0,0,0,0,3221225526,416,
416,416,2147483870,1502,1502,1502,1502,1826,1827,1502,1502,1825,1826,1827,1502,2147484251,0,0,0,0,0,0,0,0,0,0,0,0,0,0,0,0,0,0,0,0,0,0,0,0,0,0,0,0,0,0,0,0,0,0,0,0,0,0,0,0,0,0,0,0,0,0,0,0,0,3221225526,416,
416,416,54,1886,1887,1888,1889,1890,1891,1630,1774,1775,1890,1891,1524,1576,0,0,0,0,0,0,0,0,0,0,0,0,0,0,0,0,0,0,0,0,0,0,0,0,0,0,0,0,0,0,0,0,0,0,0,0,0,0,0,0,0,0,0,0,0,0,0,0,0,3221225526,416,
416,416,55,1950,1951,1952,1953,1954,1955,1630,1838,1839,1954,1955,1588,1576,0,0,0,0,0,0,0,0,0,0,0,0,0,0,0,0,0,0,0,0,0,0,0,0,0,0,0,0,0,0,0,0,0,1218,1218,1218,1218,1218,1220,0,0,1215,1218,1218,1218,1218,1218,0,0,133,416,
416,416,53,2014,2015,2016,2017,1698,1699,1630,1630,1630,1698,1699,1652,1640,0,0,0,0,0,0,0,63,418,418,418,418,53,0,0,0,0,0,65,418,418,418,418,536871330,418,418,418,418,418,418,418,418,488,1280,1280,1280,1280,1280,1348,0,0,1343,2147484928,2147484928,2147484928,2147484928,2147484928,65,418,418,416,
416,416,54,1183,1183,1183,1183,866,867,1183,1183,1183,866,867,1183,1183,0,0,0,0,0,0,0,63,418,418,418,418,53,0,0,0,0,0,65,418,418,418,418,418,418,418,418,418,418,418,418,418,488,1344,1344,1345,1346,1347,1348,0,0,1343,2147484995,2147484994,2147484993,2147484992,2147484992,65,418,418,416,
416,416,55,0,0,0,0,0,0,0,0,0,0,0,0,0,0,0,0,0,0,0,0,63,418,418,418,418,53,0,0,0,0,0,65,418,418,418,418,418,418,418,418,418,418,418,418,418,488,1472,1472,1473,1474,1475,1476,0,0,1343,2147485123,2147485122,2147485121,2147485120,2147485120,65,418,418,416,
416,416,53,0,0,0,0,0,0,0,0,0,0,0,0,0,0,0,0,0,0,0,0,63,418,418,418,418,53,0,0,0,0,0,65,418,418,418,418,418,418,418,418,418,418,418,418,418,225,134,362,1539,1539,1539,1540,0,0,1535,1539,1539,1539,1539,1539,65,418,418,416,
416,416,54,0,0,0,0,0,0,0,0,0,0,0,0,0,0,0,0,0,0,0,0,63,418,418,418,418,53,0,0,0,0,0,65,418,418,418,418,418,418,418,418,418,418,418,418,418,418,418,488,0,0,0,0,0,0,0,0,0,0,0,0,65,418,418,416,
416,416,55,0,0,0,0,0,0,0,0,0,0,0,0,0,0,0,0,0,0,0,0,133,418,418,418,418,53,0,0,0,0,0,65,418,418,418,418,418,418,418,418,418,418,418,418,418,418,418,488,0,0,0,0,0,0,0,0,0,0,0,0,65,418,418,416,
416,416,55,0,0,0,0,0,0,0,0,63,418,418,418,418,418,418,418,418,418,418,418,418,418,418,418,418,53,0,0,0,0,0,65,418,418,418,418,418,418,418,418,418,418,418,418,418,418,418,488,0,0,0,0,0,0,0,0,0,2147488352,2147488351,2147488350,65,418,418,416,
416,416,55,0,0,0,0,0,0,0,0,63,418,418,418,418,418,418,418,418,418,418,418,418,418,418,418,418,53,0,0,0,0,0,65,418,418,418,418,418,418,418,418,418,418,418,418,418,418,418,488,0,0,0,0,0,0,0,0,0,2147488416,2147488415,2147488414,3221225960,418,418,416,
416,416,55,0,0,0,0,0,0,0,0,603,1502,1502,1502,1502,1502,1502,1502,1502,1502,1502,1502,146,418,418,418,418,53,0,0,0,0,0,65,418,418,418,418,418,418,418,418,418,418,418,418,418,418,418,488,0,4958,4959,4960,4961,0,0,0,0,2147488480,2147488479,2147488478,65,418,418,416,
416,416,55,0,0,0,0,0,0,0,0,1565,1772,1569,1569,1569,1569,1569,1569,1569,1569,1570,1571,63,418,2147483870,1502,1502,2147484251,0,0,0,0,0,603,26,26,610,611,26,26,26,26,26,26,610,611,26,146,418,488,0,5022,5023,5024,5025,0,0,0,0,2147488544,2147488543,2147488542,65,418,418,416,
416,416,55,0,0,0,0,0,0,0,0,1565,1836,1631,1631,1900,1581,1582,1631,1631,1631,1570,1571,63,418,488,1568,1524,1576,0,0,0,0,0,1565,1522,1523,1570,1571,1567,1567,1567,1567,1567,1567,1570,1571,1630,63,418,488,0,5086,5087,5088,5089,0,0,0,0,0,0,0,65,418,418,416,
416,416,55,0,0,0,0,0,0,0,0,1693,1900,1631,1631,1900,1632,1632,1646,1647,1631,1698,1699,63,418,488,1630,1588,1640,0,0,0,0,0,1693,1586,1587,1570,1571,1581,1582,1630,1630,1646,1647,1570,1571,1630,63,418,488,0,5150,5151,5152,5153,0,0,0,0,0,0,0,65,418,418,416,
416,416,55,0,0,0,0,0,0,0,0,3231,1610616031,44,44,2975,2976,2977,2978,2979,2980,1762,1763,63,418,488,1630,1652,1640,0,0,0,0,0,1693,1650,1651,1698,1699,1630,2014,2015,2016,2017,1632,1698,1699,1630,63,418,488,0,5214,5215,5216,5217,0,0,0,0,0,0,0,65,418,418,416,
416,416,55,0,0,0,0,0,0,0,0,3295,1610616031,0,0,3039,3040,3041,3042,3043,3044,0,0,63,418,488,44,1758,876,0,0,0,0,0,880,3809,3810,3811,3812,3813,44,44,44,44,44,866,867,412,63,418,488,0,0,0,0,0,0,0,0,0,0,0,0,65,418,418,416,
416,416,55,0,0,0,0,0,0,0,0,3295,1610616031,0,0,0,0,0,0,0,0,0,0,63,418,488,0,0,0,0,0,0,0,0,0,3873,3874,3875,3876,3877,0,0,0,0,0,0,0,668,63,418,488,0,0,0,0,0,0,0,0,0,0,0,0,65,418,418,416,
416,416,55,0,0,0,0,0,0,0,0,3295,3221228767,2684357855,2684357855,2684357855,3221228767,0,0,0,0,0,0,63,418,488,0,0,0,0,0,0,0,0,0,0,0,0,0,0,0,0,0,0,0,0,0,668,63,418,488,0,0,0,0,0,0,0,0,0,0,0,0,65,418,418,416,
416,416,55,0,0,0,0,0,0,0,0,3359,3360,3360,3360,3360,3360,0,0,0,0,0,0,63,418,488,0,0,0,0,0,0,0,0,0,0,0,0,0,4505,4506,3801,3802,4441,4506,0,0,668,63,418,488,4702,4703,4704,0,0,0,0,0,0,0,0,0,65,418,418,416,
416,416,55,0,0,0,0,0,0,0,0,3423,3424,3424,3424,3424,3424,0,0,0,0,0,0,63,418,488,0,0,0,0,0,0,0,0,0,0,0,0,0,4505,4506,3865,3866,4441,4506,0,0,668,63,418,488,4766,4767,4768,0,0,0,0,0,0,0,0,0,65,418,418,416,
416,416,55,0,0,0,0,0,0,0,0,0,0,0,0,0,0,0,0,0,0,0,0,63,418,488,0,0,0,0,0,0,0,0,0,0,0,0,0,4505,4506,3929,3930,4441,4506,0,0,668,63,418,488,4830,4831,4832,0,0,0,0,0,3353,3354,3355,3356,65,418,418,416,
416,416,55,0,0,0,0,0,0,0,0,0,0,0,0,0,0,0,0,0,0,0,0,63,418,488,0,0,0,0,2713,2714,2715,2716,2717,0,0,0,0,4633,4634,3993,3994,4633,4634,0,0,668,63,418,488,4894,4895,4896,0,0,0,0,0,3417,3418,3419,3420,65,418,418,416,
416,416,55,0,0,0,0,0,0,0,0,0,0,0,0,0,0,0,0,0,0,0,0,63,418,488,0,0,0,4578,2777,2778,2779,2780,2781,4578,0,0,0,0,0,4057,4058,0,0,0,0,668,63,418,488,0,0,0,0,0,0,0,0,0,4642,4642,0,65,418,418,416,
416,416,55,0,0,0,0,0,0,0,0,0,0,0,0,0,0,0,0,0,0,0,0,228,418,225,0,0,0,4642,4578,0,4578,0,4578,4642,0,0,0,0,0,0,0,0,0,0,0,668,63,416,488,0,0,0,0,0,0,0,0,0,2147488545,0,0,65,418,418,416,
416,416,55,0,0,0,0,0,0,0,0,0,0,0,0,0,0,0,0,0,228,418,418,418,418,418,2147484066,2147483876,0,0,4642,0,4642,0,4642,0,0,0,0,0,0,0,0,0,0,0,0,668,63,416,488,2147488351,2147488350,2147488349,4702,4703,4704,4702,4703,4704,2147488609,2147488608,2147488607,65,418,418,416,
416,416,55,0,0,0,0,0,0,0,0,0,0,0,0,0,0,0,0,63,418,418,418,418,418,418,2147484066,2147484066,2147483711,0,0,0,0,0,0,0,0,0,0,0,0,0,0,0,0,0,0,668,63,416,488,2147488415,2147488414,4960,4766,4767,4960,4766,4767,4768,2147488673,2147488672,2147488671,65,418,418,416,
416,416,225,0,0,0,0,0,0,0,0,0,0,0,0,0,0,0,0,2147483873,418,418,418,418,418,418,418,418,225,0,0,0,0,0,0,0,0,0,0,0,0,0,0,0,0,0,0,0,133,416,225,5146,0,4829,4830,4831,4832,4830,4831,4832,2147488737,2147488736,2147488735,65,418,418,416,
416,416,416,416,416,416,416,416,416,416,416,416,416,416,416,416,416,416,416,416,416,416,416,416,416,416,416,416,416,416,416,416,416,416,416,416,416,416,416,416,416,416,416,416,416,416,416,416,416,416,416,416,416,416,416,416,416,416,416,416,416,416,416,416,418,418,416,
416,416,416,416,416,416,416,416,416,416,416,416,416,416,416,416,416,416,416,416,416,416,416,416,416,416,416,416,416,416,416,416,416,416,416,416,416,416,416,416,416,416,416,416,416,416,416,416,416,416,416,416,416,416,416,416,416,416,416,416,416,416,416,416,416,416,416,
416,416,416,416,416,416,416,416,416,416,416,416,416,416,416,416,416,416,416,416,416,416,416,416,416,416,416,416,416,416,416,416,416,416,416,416,416,416,416,416,416,416,416,416,416,416,416,416,416,416,416,416,416,416,416,416,416,416,416,416,416,416,416,416,416,416,416
</data>
 </layer>
 <layer id="3" name="Topo" width="67" height="67">
  <properties>
   <property name="collider" type="bool" value="false"/>
  </properties>
  <data encoding="csv">
0,0,0,0,0,0,0,0,0,0,0,0,0,0,0,0,0,0,0,0,0,0,0,0,0,0,0,0,0,0,0,0,0,0,0,0,0,0,0,0,0,0,0,0,0,0,0,0,0,0,0,0,0,0,0,0,0,0,0,0,0,0,0,0,0,0,0,
0,0,0,0,0,0,0,0,0,0,0,0,0,0,0,0,0,0,0,0,0,0,0,0,0,0,0,0,0,0,0,0,0,0,0,0,0,0,0,0,0,0,0,0,0,0,0,0,0,0,0,0,0,0,0,0,0,0,0,0,0,0,0,0,0,0,0,
0,0,0,0,0,0,0,0,0,0,0,0,0,0,0,0,0,0,0,0,0,0,0,0,0,0,0,0,0,0,0,0,0,0,0,0,0,0,0,0,0,0,0,0,0,0,0,0,0,0,0,0,0,0,0,0,0,0,0,0,0,0,0,0,0,0,0,
0,0,0,0,0,0,0,0,0,0,0,0,0,0,0,0,0,0,0,2841,2842,2843,2844,0,0,2841,2842,2843,2844,0,0,0,0,0,3097,3098,0,0,0,0,0,0,3097,3098,0,0,0,0,0,0,0,0,0,0,0,0,0,0,0,0,0,0,0,0,0,0,0,
0,0,0,0,0,0,0,0,0,0,0,0,0,0,0,73,0,0,0,2905,2906,2907,2908,0,0,2905,2906,2907,2908,0,0,0,0,0,3161,3162,0,0,3097,3098,0,0,3161,3162,0,0,0,0,0,0,0,0,0,0,0,0,0,0,0,0,0,0,0,0,0,0,0,
0,0,0,0,0,0,0,0,0,0,0,0,0,0,0,139,0,0,0,2969,2970,2971,2972,0,0,2969,2970,2971,2972,0,0,0,0,0,0,0,0,0,3161,3162,0,0,0,0,0,0,0,0,0,0,0,0,0,0,0,0,0,0,0,0,0,0,0,0,0,0,0,
0,0,0,0,0,0,0,0,0,0,0,0,0,0,0,139,0,0,0,3033,3034,3035,3036,0,0,3033,3034,3035,3036,0,0,0,0,0,0,0,0,0,0,0,0,0,0,0,0,0,0,0,0,0,0,0,0,0,0,0,0,0,0,0,0,0,0,0,0,0,0,
0,0,0,0,0,0,0,0,0,0,0,0,0,0,0,139,0,0,0,0,0,0,0,0,0,0,0,0,0,0,0,0,0,0,0,0,0,0,0,0,0,0,0,0,0,0,0,0,0,0,0,0,0,0,0,0,0,0,0,0,0,0,0,0,0,0,0,
0,0,0,0,0,0,0,0,0,0,0,0,0,0,0,139,0,0,0,0,0,0,0,0,0,0,0,0,0,0,0,0,0,0,0,0,0,0,0,0,0,0,0,0,0,0,0,0,0,0,0,0,0,0,0,0,0,0,0,0,0,0,0,0,0,0,0,
0,0,0,0,0,0,0,0,0,0,0,0,0,0,0,139,0,0,0,0,0,0,0,0,0,0,0,0,0,0,0,0,0,0,0,0,0,0,0,0,0,0,0,0,0,0,0,0,0,0,0,0,0,0,0,0,0,0,0,0,0,0,0,0,0,0,0,
0,0,0,0,0,0,0,0,0,0,0,0,0,0,347,3221225545,2147483995,0,0,0,0,0,0,0,0,0,0,0,0,0,0,0,0,0,0,0,0,0,0,0,0,0,0,0,0,0,0,0,0,0,0,0,0,0,0,0,0,0,0,0,0,0,0,0,0,0,0,
0,0,0,0,0,0,123,2,124,124,127,128,0,0,0,0,488,0,0,0,0,0,0,0,123,2,124,124,127,128,0,0,0,0,0,0,0,0,0,0,0,0,0,0,0,0,0,0,0,0,0,0,0,0,0,0,0,0,0,0,0,0,0,0,0,0,0,
0,0,0,130,131,132,125,126,126,126,126,129,132,134,0,0,2147483781,134,134,134,134,134,134,134,125,126,126,126,126,2147483948,0,0,0,0,0,0,0,0,0,0,0,0,0,0,0,0,0,0,0,0,0,3221226974,3221226974,3221226075,0,0,0,1073742427,3221226974,3221226974,0,0,0,0,0,0,0,
0,0,0,0,0,0,0,0,0,0,0,0,0,0,0,0,0,0,0,0,0,0,0,0,0,0,0,0,0,0,0,0,0,0,0,0,0,0,0,0,0,0,0,0,0,0,0,0,0,0,0,0,0,0,0,0,0,0,0,0,0,0,0,0,0,0,0,
0,0,0,0,0,0,0,0,0,0,0,0,0,0,0,0,0,0,0,0,0,0,0,0,0,0,0,0,0,0,0,0,0,0,0,0,0,0,0,0,0,0,0,0,0,0,0,0,0,0,0,0,0,0,0,0,0,0,0,0,0,0,0,0,0,0,0,
0,0,0,0,0,0,0,0,0,0,0,0,0,0,0,0,0,0,0,0,0,0,0,0,0,0,0,0,0,0,0,0,0,0,0,0,0,0,0,0,0,0,0,0,0,0,0,0,0,0,0,0,0,123,2,559,559,560,0,0,0,0,0,0,0,0,0,
0,0,0,0,0,0,0,0,0,0,0,0,0,0,0,0,0,0,0,0,0,0,0,0,0,0,0,0,0,0,0,0,0,0,0,0,0,0,0,0,0,0,0,0,0,0,0,0,0,0,0,0,0,620,0,0,0,624,0,0,0,0,0,0,0,0,0,
0,0,0,0,0,0,0,0,0,0,0,0,0,0,0,0,0,0,0,0,0,0,0,0,0,0,0,0,0,0,0,0,0,0,0,0,0,0,0,0,0,0,0,0,0,0,0,0,0,0,0,0,0,0,0,0,0,0,0,0,0,0,0,0,0,0,0,
0,0,0,0,0,0,0,0,0,0,0,0,0,0,0,0,0,0,0,0,0,0,0,0,0,0,0,0,0,0,0,0,0,134,362,0,0,0,0,0,2147484010,134,134,134,134,134,0,0,0,0,0,0,0,0,0,0,0,0,0,0,0,0,0,0,0,0,0,
0,0,0,0,0,0,0,0,0,0,0,0,0,0,0,0,0,0,0,0,0,0,0,0,0,0,0,0,0,0,0,0,0,0,0,0,0,0,0,0,0,0,0,0,0,0,0,0,0,0,0,0,0,0,0,0,0,0,0,0,0,0,0,0,0,0,0,
0,0,0,0,0,0,0,0,0,0,0,0,0,0,0,0,0,0,0,0,0,0,0,0,123,2,124,124,127,128,0,0,0,0,0,0,0,0,0,0,0,0,0,0,0,0,0,0,0,0,0,0,0,0,0,0,0,0,0,0,0,0,0,0,0,0,0,
0,0,0,0,0,0,0,0,0,0,0,0,0,0,0,0,0,0,0,0,0,0,0,0,620,0,0,0,0,624,0,4006,4007,0,641,0,0,0,0,0,641,0,4006,4007,0,0,0,0,0,0,0,0,0,0,0,0,0,0,0,0,0,0,0,0,0,0,0,
0,0,0,0,0,0,0,0,0,0,0,0,0,0,0,0,0,0,0,0,0,0,0,0,0,0,0,0,0,0,0,4070,4071,0,0,0,0,0,0,0,0,0,4070,4071,0,0,0,0,0,0,0,0,0,0,0,0,0,0,0,0,0,0,0,0,0,0,0,
0,0,0,0,0,0,0,2147484010,130,131,132,0,0,0,0,0,0,0,0,0,0,0,0,0,0,0,0,0,0,0,0,4134,4135,0,0,0,0,0,0,0,0,0,4134,4135,0,0,0,0,0,362,0,0,0,0,0,0,0,0,0,0,0,0,2147484010,0,0,0,0,
0,0,0,0,0,0,0,0,0,0,0,0,0,0,0,0,0,0,0,0,0,0,0,0,0,0,0,0,0,0,0,0,0,0,0,0,0,0,0,0,0,0,0,0,0,0,0,0,0,0,0,0,0,0,0,0,0,0,0,0,0,0,0,0,0,0,0,
0,0,0,0,0,0,0,0,0,0,0,0,0,0,0,0,0,0,0,0,0,0,0,0,0,0,0,0,0,0,0,0,0,0,0,0,0,0,0,0,0,0,0,0,0,0,0,0,0,0,0,0,0,0,0,0,0,0,0,0,0,0,0,0,0,0,0,
0,0,0,0,0,0,0,0,0,0,0,0,0,0,3097,3098,0,0,0,0,0,0,0,0,0,0,0,0,0,0,0,0,0,0,0,0,0,0,0,0,0,0,0,0,0,0,0,0,0,317,0,0,0,0,0,0,0,0,0,0,0,0,317,0,0,0,0,
0,0,0,0,0,0,0,0,0,0,0,0,0,0,3161,3162,0,0,0,0,0,0,0,0,0,0,0,0,0,0,0,0,0,0,0,0,0,0,0,0,0,0,0,0,0,0,0,0,0,381,313,314,315,316,0,0,0,0,2147483964,2147483963,2147483962,2147483961,2147484029,0,0,0,0,
0,0,0,0,0,0,0,0,0,0,0,0,0,0,0,0,0,0,0,0,0,0,0,0,0,0,0,0,0,0,0,0,0,0,0,0,0,0,0,0,0,0,0,0,0,0,0,0,0,445,441,442,443,444,0,0,0,0,2147484092,2147484091,2147484090,2147484089,2147484093,0,0,0,0,
0,0,0,0,0,0,0,0,0,0,0,0,0,0,0,0,0,0,0,0,0,0,0,0,0,0,0,0,0,0,0,0,0,0,0,0,0,0,0,0,0,0,0,0,0,0,0,0,0,509,505,506,507,508,0,0,0,0,2147484156,2147484155,2147484154,2147484153,2147484157,0,0,0,0,
0,0,0,0,0,0,0,0,0,0,0,0,0,0,0,0,0,0,0,0,0,0,0,0,0,0,0,0,0,0,0,0,0,0,0,0,0,0,0,0,0,0,0,0,0,0,0,0,0,0,0,0,0,0,0,0,0,0,0,0,0,0,0,0,0,0,0,
0,0,4701,0,0,4704,0,0,0,0,0,0,0,0,0,0,0,0,0,0,0,0,0,0,0,0,0,0,0,0,0,0,0,0,0,0,0,0,0,0,0,0,0,0,0,0,0,0,0,0,0,0,0,0,0,0,0,0,0,0,0,0,0,0,0,0,0,
0,0,54,4766,4767,0,0,0,0,0,0,0,0,0,0,0,0,0,0,0,0,0,0,0,0,0,0,0,0,0,0,0,0,0,0,0,0,0,0,0,0,0,0,0,0,0,0,0,0,0,0,0,0,0,0,0,0,0,0,0,0,0,0,0,0,0,0,
0,0,225,131,131,131,131,131,131,131,131,131,131,131,131,2147483995,0,0,0,0,0,0,0,0,0,0,0,0,0,0,0,0,0,0,0,0,0,0,0,0,0,0,0,0,0,0,0,0,0,0,0,0,0,0,0,0,0,0,0,0,0,0,0,0,0,0,0,
0,0,147,147,147,147,0,0,0,0,0,0,0,0,0,0,0,0,0,0,0,0,0,0,0,0,0,0,0,0,0,0,0,0,0,0,0,0,0,0,0,0,0,0,0,0,0,0,0,0,0,0,0,0,0,0,0,0,0,0,0,0,0,0,0,0,0,
0,0,0,0,0,0,0,0,0,0,0,0,0,0,0,0,0,0,0,0,0,0,0,0,0,0,0,0,0,0,0,0,0,0,0,0,0,0,0,0,0,0,0,0,0,0,0,0,0,0,0,0,0,0,0,0,0,0,0,0,0,0,0,0,0,0,0,
0,0,0,0,0,0,0,0,0,0,0,0,0,0,0,0,0,0,0,0,0,0,0,0,0,0,0,0,0,0,0,0,0,0,0,0,0,0,0,0,0,0,0,0,0,0,0,0,0,0,0,0,0,0,0,0,0,0,0,0,0,0,0,0,0,0,0,
0,0,0,0,0,0,0,0,0,3097,3098,0,0,0,0,0,0,0,0,0,0,0,0,0,0,0,0,0,0,0,0,0,0,0,0,0,0,0,0,0,0,0,0,0,0,0,0,0,0,0,0,0,0,0,0,0,0,0,0,0,0,0,0,0,0,0,0,
0,0,0,0,0,0,0,0,0,3161,3162,0,0,0,0,0,0,0,0,0,0,0,0,2147484010,134,134,134,134,2147483995,0,0,0,0,0,2147484010,134,134,134,134,134,134,134,134,134,134,134,134,134,362,0,0,0,0,0,0,0,0,0,0,0,0,0,0,2147484010,134,0,0,
0,0,0,0,0,0,0,0,0,0,0,0,0,0,0,0,0,0,0,0,0,0,0,0,0,0,0,0,0,0,0,0,0,0,0,0,0,0,0,0,0,0,0,0,0,0,0,0,0,0,0,0,0,0,0,0,0,0,0,0,0,0,0,0,0,0,0,
0,0,0,0,0,0,0,0,0,0,0,0,0,0,0,0,0,0,0,0,0,0,0,0,0,0,0,0,0,0,0,0,0,0,0,0,0,0,0,0,0,0,0,0,0,0,0,0,0,0,0,0,0,0,0,0,0,0,0,0,0,0,0,0,0,0,0,
0,0,0,0,0,0,0,0,0,0,0,0,0,0,0,0,0,0,0,0,0,0,0,0,0,0,0,0,0,0,0,0,0,0,0,0,0,0,0,0,0,0,0,0,0,0,0,0,0,0,0,0,0,0,0,0,0,0,0,0,0,0,0,0,0,0,0,
0,0,0,0,0,0,0,0,0,0,0,0,0,0,0,0,0,0,0,0,0,0,0,0,0,0,0,0,0,0,0,0,0,0,0,0,0,0,0,0,0,0,0,0,0,0,0,0,0,0,0,0,0,0,0,0,0,0,0,0,0,0,0,0,0,0,0,
0,0,0,0,0,0,0,0,0,0,0,0,0,0,0,0,0,0,0,0,0,0,0,0,0,0,0,0,0,0,0,0,0,0,0,0,0,0,0,0,0,0,0,0,0,0,0,0,0,0,0,0,0,0,0,0,0,0,0,0,0,0,0,0,0,0,0,
0,0,0,0,0,0,0,0,0,0,0,2147484010,134,134,134,134,134,134,134,134,134,134,134,0,0,0,0,0,0,0,0,0,0,0,0,0,0,0,0,0,0,0,0,0,0,0,0,0,0,0,0,0,0,0,0,0,0,0,0,0,0,0,0,0,0,0,0,
0,0,0,0,0,0,0,0,0,0,0,0,0,0,0,0,0,0,0,0,0,0,0,0,0,0,0,0,0,0,0,0,0,0,0,0,0,0,0,0,0,0,0,0,0,0,0,0,0,0,0,0,0,0,0,0,0,0,0,0,0,0,0,0,0,0,0,
0,0,0,0,0,0,0,0,0,0,0,0,0,0,0,0,0,0,0,0,0,0,0,0,0,0,0,0,0,0,0,0,0,0,0,0,0,0,0,0,0,0,0,0,0,0,0,0,0,0,0,0,0,0,0,0,0,0,0,0,0,3097,3098,0,0,0,0,
0,0,0,0,0,0,0,0,0,0,0,0,0,0,0,0,4190,4191,4190,4191,0,0,0,0,0,0,0,0,0,0,0,0,0,0,0,0,0,0,0,0,0,0,0,0,0,0,0,0,0,0,0,0,0,0,0,0,0,0,0,0,0,3161,3162,0,0,0,0,
0,0,0,0,0,0,0,0,0,0,0,0,3097,3098,0,2783,2784,2785,2786,2787,2788,0,0,0,0,0,4190,4191,0,0,0,0,0,0,0,0,0,0,0,0,4889,4890,4891,4892,0,0,0,0,0,0,0,0,0,0,0,0,0,0,0,0,0,0,0,0,0,0,0,
0,0,0,0,0,0,0,0,0,0,0,0,3161,3162,0,2847,2848,2849,2850,2851,2852,0,0,0,0,0,4254,4255,0,0,0,0,0,0,0,3617,3618,3619,3620,3621,4761,4762,4763,4764,0,0,3097,3098,0,0,0,0,0,0,0,0,0,0,0,0,0,0,0,0,0,0,0,
0,0,0,0,0,0,0,0,0,0,0,3167,3167,0,0,2911,2912,2913,2914,2915,2916,0,0,0,0,0,4318,4319,0,0,0,0,0,0,0,3681,3682,3683,3684,3685,4825,4826,4827,4828,0,0,3161,3162,0,0,0,0,0,0,0,0,0,0,0,0,0,0,0,0,0,0,0,
0,0,0,0,0,0,0,0,0,0,0,0,0,0,0,0,0,0,0,0,0,0,0,0,0,0,0,0,0,0,0,0,0,0,0,3745,3746,3747,3748,3749,3173,0,0,0,0,0,0,0,0,0,0,0,0,0,0,0,0,0,0,0,0,0,0,0,0,0,0,
0,0,0,0,0,0,0,0,0,0,0,0,0,0,0,0,0,0,0,0,0,0,0,0,0,0,0,0,0,0,0,0,0,0,0,0,0,0,0,0,3237,0,0,0,0,0,0,0,0,0,0,0,0,0,0,0,0,0,0,0,0,0,0,0,0,0,0,
0,0,0,0,0,0,0,0,0,0,0,0,0,0,0,0,0,0,0,0,0,0,0,0,0,0,0,0,0,0,0,0,0,0,0,0,0,0,0,0,0,0,0,0,0,0,0,0,0,0,0,0,0,0,0,0,0,0,0,0,0,0,0,0,0,0,0,
0,0,0,0,0,0,0,0,0,0,0,0,0,0,0,0,0,0,0,0,0,0,0,0,0,0,0,0,0,0,0,0,0,0,0,0,0,0,0,0,0,0,0,0,0,0,0,0,0,0,0,0,0,0,0,0,0,0,0,0,0,0,0,0,0,0,0,
0,0,0,0,0,0,0,0,0,0,0,0,0,0,0,0,0,0,0,0,0,0,0,0,0,0,0,0,0,0,0,0,0,0,0,0,0,0,0,0,0,0,0,0,0,0,0,0,0,0,0,0,0,0,0,0,0,0,0,3225,3226,3227,3228,0,0,0,0,
0,0,0,0,0,0,0,0,0,0,0,0,0,0,0,0,0,0,0,0,0,0,0,0,0,0,0,0,0,0,0,0,0,0,0,0,0,0,0,0,0,0,0,0,0,0,0,0,0,0,0,3097,3098,0,0,0,0,0,0,3289,3290,3291,3292,0,0,0,0,
0,0,0,0,0,0,0,0,0,0,0,0,0,0,0,0,0,0,0,0,0,0,0,0,0,0,0,0,0,0,0,0,0,0,0,0,0,0,0,0,0,0,0,0,0,0,0,0,0,0,0,3161,3162,0,0,0,0,0,0,0,0,0,0,0,0,0,0,
0,0,0,0,0,0,0,0,0,0,0,0,0,0,0,0,0,0,0,0,0,0,0,0,0,0,0,0,0,0,0,0,0,0,0,0,0,0,0,0,0,0,0,0,0,0,0,0,0,0,0,0,0,0,0,0,0,0,0,0,4578,4578,0,0,0,0,0,
0,0,0,0,0,0,0,0,0,0,0,0,0,0,0,0,0,0,0,0,0,0,0,0,0,0,0,0,0,0,0,0,0,0,0,0,0,0,0,0,0,0,0,0,0,0,0,0,0,0,0,0,0,0,0,0,0,0,0,0,0,0,0,0,0,0,0,
0,0,0,0,0,0,0,0,0,0,0,0,0,0,0,0,0,0,0,0,2147484010,134,134,0,0,0,2147483778,362,0,0,0,0,0,0,0,0,0,0,0,0,0,0,0,0,0,0,0,0,0,0,0,0,0,0,0,0,0,0,0,0,0,0,0,65,0,0,0,
0,0,0,0,0,0,0,0,0,0,0,0,0,0,0,0,0,0,0,2147484010,0,0,0,0,0,0,0,0,362,0,0,0,0,0,0,0,0,0,0,0,0,0,0,0,0,0,0,0,0,0,0,0,0,0,0,0,0,0,0,0,0,0,0,65,0,0,0,
0,0,0,0,0,0,0,0,0,0,0,0,0,0,0,0,0,0,0,0,0,0,0,0,0,0,0,0,0,0,0,0,0,0,0,0,0,0,0,0,0,0,0,0,0,0,0,0,0,0,0,0,0,0,0,0,0,0,0,0,0,0,0,65,0,0,0,
0,0,0,134,134,134,134,134,134,134,134,134,134,134,134,134,134,134,134,0,0,0,0,0,0,0,0,0,0,134,134,134,134,134,134,134,134,134,134,134,134,134,134,134,134,134,134,134,0,0,0,130,130,130,130,130,130,130,130,130,130,130,130,133,0,0,0,
0,0,0,0,0,0,0,0,0,0,0,0,0,0,0,0,0,0,0,0,0,0,0,0,0,0,0,0,0,0,0,0,0,0,0,0,0,0,0,0,0,0,0,0,0,0,0,0,0,0,0,0,0,0,0,0,0,0,0,0,0,0,0,0,0,0,0,
0,0,0,0,0,0,0,0,0,0,0,0,0,0,0,0,0,0,0,0,0,0,0,0,0,0,0,0,0,0,0,0,0,0,0,0,0,0,0,0,0,0,0,0,0,0,0,0,0,0,0,0,0,0,0,0,0,0,0,0,0,0,0,0,0,0,0,
0,0,0,0,0,0,0,0,0,0,0,0,0,0,0,0,0,0,0,0,0,0,0,0,0,0,0,0,0,0,0,0,0,0,0,0,0,0,0,0,0,0,0,0,0,0,0,0,0,0,0,0,0,0,0,0,0,0,0,0,0,0,0,0,0,0,0
</data>
 </layer>
 <objectgroup id="4" name="Camada de Objetos">
  <object id="1" name="vaso" type="vaso" x="312.667" y="145">
   <properties>
    <property name="loot" value="runa_roxa"/>
   </properties>
  </object>
  <object id="2" name="vaso" type="vaso" x="340.5" y="173.333">
   <properties>
    <property name="loot" value="runa_azul"/>
   </properties>
  </object>
  <object id="3" name="vaso" type="vaso" x="341.416" y="147.833">
   <properties>
    <property name="loot" value="chave"/>
   </properties>
  </object>
  <object id="5" name="start" x="139.751" y="140.402"/>
  <object id="6" name="barreira_roxa" type="barreira" x="600.531" y="344.833">
   <properties>
    <property name="runa" value="runa_roxa"/>
   </properties>
  </object>
  <object id="7" name="runa_roxa" type="runa" x="584.667" y="411.333"/>
  <object id="11" name="porta_saida.png" type="porta_saida" x="887.324" y="91.8939"/>
  <object id="14" name="barril" type="esconderijo" x="58.1364" y="182.031" rotation="90.5182"/>
  <object id="15" name="barreira_azul" type="barreira" x="895.977" y="494.883">
   <properties>
    <property name="runa" value="runa_azul"/>
   </properties>
  </object>
  <object id="16" name="runa_azul" type="runa" x="673" y="525.5"/>
  <object id="17" name="start_enemy" x="134" y="885"/>
  <object id="18" name="start_troll" x="336.015" y="486.295"/>
  <object id="19" name="barril" type="esconderijo" x="355.333" y="836.667"/>
  <object id="20" name="barril" type="esconderijo" x="359.333" y="694.667"/>
  <object id="21" name="vaso" type="vaso" x="430.5" y="849.5">
   <properties>
    <property name="loot" value=""/>
   </properties>
  </object>
  <object id="22" name="vaso" type="vaso" x="656.136" y="848.602">
   <properties>
    <property name="loot" value=""/>
   </properties>
  </object>
  <object id="24" name="vaso" type="vaso" x="683.352" y="849.545">
   <properties>
    <property name="loot" value=""/>
   </properties>
  </object>
  <object id="25" name="vaso" type="vaso" x="752.182" y="853.455">
   <properties>
    <property name="loot" value=""/>
   </properties>
  </object>
  <object id="26" name="vaso" type="vaso" x="754" y="1000">
   <properties>
    <property name="loot" value=""/>
   </properties>
  </object>
  <object id="27" name="vaso" type="vaso" x="721.455" y="999.273">
   <properties>
    <property name="loot" value=""/>
   </properties>
  </object>
  <object id="28" name="vaso" type="vaso" x="474.792" y="998.75">
   <properties>
    <property name="loot" value=""/>
   </properties>
  </object>
  <object id="29" name="vaso" type="vaso" x="292.667" y="996.75">
   <properties>
    <property name="loot" value=""/>
   </properties>
  </object>
  <object id="30" name="vaso" type="vaso" x="358" y="949.5">
   <properties>
    <property name="loot" value=""/>
   </properties>
  </object>
  <object id="31" name="vaso" type="vaso" x="229" y="998">
   <properties>
    <property name="loot" value=""/>
   </properties>
  </object>
  <object id="32" name="vaso" type="vaso" x="58.25" y="997.75">
   <properties>
    <property name="loot" value=""/>
   </properties>
  </object>
  <object id="33" name="barril" type="esconderijo" x="605.667" y="998"/>
  <object id="34" name="vaso" type="vaso" x="61" y="101">
   <properties>
    <property name="loot" value=""/>
   </properties>
  </object>
  <object id="35" name="vaso" type="vaso" x="144.227" y="100.795">
   <properties>
    <property name="loot" value=""/>
   </properties>
  </object>
  <object id="37" name="vaso" type="vaso" x="213.545" y="181.136">
   <properties>
    <property name="loot" value=""/>
   </properties>
  </object>
  <object id="38" name="barril" type="esconderijo" x="212.636" y="99.9091"/>
  <object id="39" name="tocha" type="torch" x="144.25" y="65.25">
   <properties>
    <property name="loot" value=""/>
   </properties>
  </object>
  <object id="41" name="tocha" type="torch" x="144" y="188.5">
   <properties>
    <property name="loot" value=""/>
   </properties>
  </object>
  <object id="42" name="tocha" type="torch" x="192" y="785.75">
   <properties>
    <property name="loot" value=""/>
   </properties>
  </object>
  <object id="43" name="tocha" type="torch" x="736.25" y="799.25">
   <properties>
    <property name="loot" value=""/>
   </properties>
  </object>
 </objectgroup>
</map>
